X: 25
T: Acemaşîrân Seyir
C: Şefik Gürmeriç
O: Turkey
F: http://compmusic.upf.edu/node/140
N: acemasiran--seyir--sofyan--1--sefik_gurmeric
N: makam= acemasiran
N: form= seyir
N: usul= sofyan = 4/4
M: 4/4
L: 1/16
K: C _B   
Q: 1/4=60
%%MIDI tuningsystem comma53
f6e2 d3c d2e2  | f12 g2a2  | b3a g2^f2 g4 a2b2  | \
w:   |   |   | 
c'3b a2g2 a8  | 
w:   | 
z4 g2a2 b2d'2 c'2b2  | b2a4g2 a3g f2e2  | \
w:   |   | 
f4 e2f2 g2b2 a2g2  | 
w:   | 
g2f4e2 e2d2 d2^c2  | d4 a4 g4 f4  | e3d e2d2 c4 _1/4B4  | \
w:   |   |   | 
c4 d2e2 f4 _e2d2  | 
w:   | 
c2d2 c2B2 A2B2 A2^G2  | A4 F2G2 A2B2 c2d2  | \
w:   |   | 
c2B2 A2G2 F4 A4  | 
w:   | 
G3F E2F2 E2F2 GAAG  | F6C2 D2E2 F4  | |


